src/actions/symbolic/shopping-cart-symbolic.svg

<svg width="16" height="16" version="1.1" viewBox="0 0 16 16" xmlns="http://www.w3.org/2000/svg">
 <path d="m1 2v1h2.5859l0.1875 1h-2e-3l1.125 6h-0.36132a0.50005 0.50005 0 0 0-0.0352 0c-0.53509 3e-6 -1.0313 0.2866-1.2988 0.75-0.26755 0.46341-0.26755 1.0366 0 1.5s0.76374 0.75 1.2988 0.75h0.58789a1.5 1.5 0 0 0-0.0879 0.5 1.5 1.5 0 0 0 1.5 1.5 1.5 1.5 0 0 0 1.5-1.5 1.5 1.5 0 0 0-0.0879-0.5h3.1758a1.5 1.5 0 0 0-0.0879 0.5 1.5 1.5 0 0 0 1.5 1.5 1.5 1.5 0 0 0 1.5-1.5 1.5 1.5 0 0 0-1.4375-1.4961 0.50005 0.50005 0 0 0-0.0625-0.0039h-8c-0.17943-1e-6 -0.34388-0.09461-0.43359-0.25-0.0897-0.1554-0.0897-0.3446 0-0.5 0.0897-0.15539 0.25416-0.25 0.43359-0.25h7c0.64722 0 1.2071-0.30896 1.6113-0.75391 0.40422-0.44495 0.6884-1.0178 0.91992-1.6484 0.46305-1.2612 0.71177-2.7784 0.95898-3.998a0.50005 0.50005 0 0 0-0.49023-0.59961h-9.711l-0.375-2h-3.4141zm3.9785 3h1.0215v1h1v-1h1v1h1v-1h1v1h1v-1h1v1h1v-1h0.86719c-0.0643 0.32753-0.13435 0.66426-0.20117 1h-0.66602v1h0.45117c-0.0829 0.34954-0.17342 0.68477-0.27734 1h-0.17383v0.46289c-0.0767 0.18827-0.15297 0.3787-0.23828 0.53711h-0.76172v0.87109c-0.14995 0.081743-0.30991 0.12891-0.5 0.12891h-0.5v-1h-1v1h-1v-1h-1v1h-1v-1h-1v1h-0.084l-0.1875-1h0.2715v-1h-0.45898l-0.1875-1h0.64648v-1h-0.83398l-0.1875-1zm1.0215 2v1h1v-1zm1 0h1v-1h-1zm1 0v1h1v-1zm1 0h1v-1h-1zm1 0v1h1v-1zm1 0h1v-1h-1zm1 0v1h1v-1zm0 1h-1v1h1zm-2 0h-1v1h1zm-2 0h-1v1h1zm-1.5 5a0.5 0.5 0 0 1 0.5 0.5 0.5 0.5 0 0 1-0.5 0.5 0.5 0.5 0 0 1-0.5-0.5 0.5 0.5 0 0 1 0.5-0.5zm6 0a0.5 0.5 0 0 1 0.5 0.5 0.5 0.5 0 0 1-0.5 0.5 0.5 0.5 0 0 1-0.5-0.5 0.5 0.5 0 0 1 0.5-0.5z" fill="#363636"/>
</svg>

<svg xmlns="http://www.w3.org/2000/svg" width="16" height="16">
    <path fill="#050505" fill-opacity=".7" d="M1 2v1h2.586l.187 1h-.002l1.125 6h-.36a.5.5 0 0 0-.036 0A1.502 1.502 0 0 0 3.2 12.25c.268.463.764.75 1.299.75h.588a1.5 1.5 0 0 0-.088.5A1.5 1.5 0 0 0 6.5 15 1.5 1.5 0 0 0 8 13.5a1.5 1.5 0 0 0-.088-.5h3.176a1.5 1.5 0 0 0-.088.5 1.5 1.5 0 0 0 1.5 1.5 1.5 1.5 0 0 0 1.5-1.5 1.5 1.5 0 0 0-1.438-1.496A.5.5 0 0 0 12.5 12h-8a.499.499 0 1 1 0-1h7c.647 0 1.207-.309 1.611-.754.404-.445.689-1.018.92-1.648.463-1.262.712-2.779.96-3.998A.5.5 0 0 0 14.5 4H4.789l-.375-2H1zm3.979 3H6v1h1V5h1v1h1V5h1v1h1V5h1v1h1V5h.867c-.064.328-.134.664-.201 1H13v1h.451a12.2 12.2 0 0 1-.277 1H13v.463c-.077.188-.153.379-.238.537H12v.871c-.15.082-.31.129-.5.129H11V9h-1v1H9V9H8v1H7V9H6v1h-.084l-.187-1H6V8h-.459l-.187-1H6V6h-.834l-.187-1zM6 7v1h1V7zm1 0h1V6H7zm1 0v1h1V7zm1 0h1V6H9zm1 0v1h1V7zm1 0h1V6h-1zm1 0v1h1V7zm0 1h-1v1h1zm-2 0H9v1h1zM8 8H7v1h1zm-1.5 5a.5.5 0 0 1 .5.5.5.5 0 0 1-.5.5.5.5 0 0 1-.5-.5.5.5 0 0 1 .5-.5zm6 0a.5.5 0 0 1 .5.5.5.5 0 0 1-.5.5.5.5 0 0 1-.5-.5.5.5 0 0 1 .5-.5z"/>
</svg>
